X:1
T:La Carmagnole
T:La Carmagnole
T:Anonymous 1792
T:En vain des milliers dennemis Contre nous se sont reunis Les dangers le trepas Ne nous essravent  Dansons &c. Brunswick ce fameux general Nous vent dit on beaucoup de mal On liu sera raison A grand coups de cannon Dansons &c. Il compte aussi qu a Dumourier Il arrachera le laurier Qui compte ainsi je crois Compte fouvent deux fois  Dansons &c. 
T:Library of Congress, Music Division - Public Domain
T:Library of Congress, Music Division - Public Domain
C:Anonymous 1792
Z:Library of Congress, Music Division - Public Domain
%%score 1 { ( 2 4 ) | 3 } 5
L:1/8
Q:1/4=144
M:6/8
K:G
V:1 treble nm="Mezzo-soprano"
V:2 treble nm="Piano"
V:4 treble 
V:3 bass 
V:5 treble-8 nm="Classical Guitar"
V:1
"^Allegro" z6 | z6 | z6 | z6 | z2 z z2 G | B2 c d2 d | c2 e d2 d | c2 c B3 | G3 A2 A | G3 z2 G | %10
w: ||||Le|can\- non vient le|re'\- son\- ner le|can\- non vient|de re\- son\-|ner guer\-|
 B2 c d2 d | c2 e d2 d | c2 c B3 | G3 A2 A | G3 d3 | B2 B G2 B | A3 d3 | B2 B G2 B | A3 z2 G | %19
w: riers, so\- yons prets|a march\- er guer\-|riers so\- yons|perts a march\-|er ci|to\- yens et sol\-|dats en|vo\- lant aux com\-|bats, dan\-|
 A2 A d2 d | B2 A B c d | G3 A G A | D3 z2 G | A2 A d2 d | B2 A B c d | c3 A2 A | G6 | z6 | z6 | %29
w: sons la car\- ma\-|gno\- le vi\- ve le|son, vi\- ve le|son, dan\-|sons la car\- ma\-|gno\- le vi\- ve le|son, du can\-|non.|||
 z6 | z6!D.C.! ||[K:C][M:6/8][Q:1/4=144]"^Allegro" z | z6 | z6 | z6 | z6 | z6 | z6 | z6 | z6 | z6 | %41
w: ||||||||||||
 z6 | z6 | z6 | z6 | z6 | z6 | z6 | z6 | z6 | z6 | z6 | z6 | z6 | z6 | z6 | z6 | z6 || %58
w: |||||||||||||||||
V:2
 [GBdg]3 z2 g/4a/4b/4c'/4 | [dd'][dd'][dd'] [dd'][dd'][dd'] | [Bb]gg gg/a/b/c'/ | %3
 d'[dd'][dd'] [dd'][dd'][dd'] | bgg g z2 | [GB]2 [Ac] [Bd]2 [Bd] | c2 [ce] [Bd]2 [Bd] | %7
 [Ac]2 [Ac] [GB]3 | G3 [DA]2 [DA] | [DG][Bd][Ac] [GB]2 z | [GB]2 [Ac] [Bd]2 [Bd] | %11
 c2 [ce] [Bd]2 [Bd] | [Ac]2 [Ac] [GB]3 | G3 [FA]2 [FA] | Gdd ddd | [Bg]dd [Bg]dd | [Af]dd ddd | %17
 [Bg]dd [Bg]dd | [Af]dd d2 [Gg] | [Aa]2 [Aa] [dd']2 [dd'] | [Bb]2 [Aa] bc'd' | g3 aga | %22
 def g2 [Gg] | [Aa]2 [Aa] [dd']2 [dd'] | [Bb]2 [Aa] bc' d' | [ec']fg [fa]2 [fa] | gdd ddd | %27
 [ac'][ac'][ac'] [ac'][ac'][ac'] | [gb]d'd ddd | [ac'][ac'][ac'] [ac'][ac'][ac'] | [gb]3 z2 z || %31
[K:C][M:6/8] z | z6 | z6 | z6 | z6 | z6 | z6 | z6 | z6 | z6 | z6 | z6 | z6 | z6 | z6 | z6 | z6 | %48
 z6 | z6 | z6 | z6 | z6 | z6 | z6 | z6 | z6 | z6 || %58
V:3
 G,.G,G, G,G,G, | [F,A,][F,A,][F,A,] [F,A,][F,A,][F,A,] | G,3 G,,3 | %3
 [F,A,][F,A,][F,A,] [F,A,][F,A,][F,A,] | G,3 G,,3 | G,B,D G,B,D | G,CE G,B,D | F,A,D F,A,D | %8
 D,G,B, D,A,C | G,B,D G,2 z | G,B,D F,B,D | G,CE G,B,D | F,A,D G,B,D | D,G,B, D,A,C | %14
 [G,B,]3 z2 z | [G,,G,]3 [B,,B,]3 | [D,D]3 z2 z | [G,,G,]3 [B,,B,]3 | [D,D]3 z2 z | F,A,D D,A,D | %20
 G,B,D G,3 | z ED [^CE]3 | D3 G,B,D | F,A,D D,A,D | G,B,D G,3 | [C,C]3 [D,D]3 | [G,,G,]3 G,,3 | %27
[I:staff -1] [FA][FA][FA] [FA][FA][FA] | G3[I:staff +1] G,,3 | %29
 z[I:staff -1] [FA][FA] [FA][FA][FA] |[I:staff +1] G,,3 z2 z ||[K:C][M:6/8] z | z6 | z6 | z6 | z6 | %36
 z6 | z6 | z6 | z6 | z6 | z6 | z6 | z6 | z6 | z6 | z6 | z6 | z6 | z6 | z6 | z6 | z6 | z6 | z6 | %55
 z6 | z6 | z6 || %58
V:4
 x6 | x6 | x6 | x6 | x6 | x6 | x6 | x6 | x6 | x6 | x6 | x6 | x6 | x6 | x6 | x6 | x6 | x6 | x6 | %19
 x6 | x6 | x6 | x6 | x6 | x6 | x6 | x6 | x6 | x6 | x6 | [GB]3 x3 ||[K:C][M:6/8] x | x6 | x6 | x6 | %35
 x6 | x6 | x6 | x6 | x6 | x6 | x6 | x6 | x6 | x6 | x6 | x6 | x6 | x6 | x6 | x6 | x6 | x6 | x6 | %54
 x6 | x6 | x6 | x6 || %58
V:5
 z6 | z6 | z6 | z6 | z6 | z6 | z6 | z6 | z6 | z6 | z6 | z6 | z6 | z6 | z6 | z6 | z6 | z6 | z6 | %19
 z6 | z6 | z6 | z6 | z6 | z6 | z6 | z6 | z6 | z6 | z6 | z6 ||[K:C][M:6/8]!f! c | %32
 [Cce]2 [df] [eg]2 [eg] | [df]2 a [Deg]2 [eg] | [Gdf]2 [df] [ce]3 | c2 [Gd] [Gd]3 | %36
 [ce][EG][DF] [CE]2 c | [Dce]2 [df] [eg]2 [eg] | [cf]2 a [eg]2 [eg] | [Gdf]2 [df] [ce]3 | %40
 c3 [Gd]2 [Gd] | c3 g3 | e2 e c2 e | [Gd]3 g3 | e2 e c2 e | d3 c3 | [Ad]2 d g2 g | e2 d efg | %48
 c3 dcd | G3 c3 | [Gd]2 d g2 g | e2 d efg | f3 [Gd]2 [Gd] | cGG GGG | [df][df][df] [df][df][df] | %55
 [ce]gG GGG | [df][df][df] [df][df][df] | [Cce]3 z2 z || %58

